X:1
T:Title
%%score { ( 1 4 ) | ( 2 3 ) }
L:1/8
Q:1/4=100
M:6/8
K:Eb
V:1 treble nm="Grand Piano"
V:4 treble 
V:2 bass 
V:3 bass 
V:1
 G_G=G E3 | C3[K:bass] =B,2 C | [G,=B,D]2 [F,B,F] [=E,B,=E]2[K:treble] [F,B,F] | [G,=B,D]6 | %4
w: ?????~???? * * *||||
 F=EF D3 | =B,3 C2 D | E2 F A2 G/_G/ | [EG]6 | [EG]2 [EG] [Ec]2 [Ed] | [Ec]2 B/=A/ [DFB]2 [DFc] | %10
w: ||||||
 [DFB]2 A/G/ A3 | [DF]2 [DF] [DAB]2 [DAc] | [FB]2 A/G/ A2 B | A2 G/_G/ [G,CE=G]3 | [DG]2 A G3 | %15
w: |||||
 F3 [CA]2 c | [G,=B,G]2 F E2 D | C6 |] %18
w: |||
V:2
 CCC [C,G,C]3 | [C,E,G,]3 [G,,F,G,]2 G, | G,,2 G,, G,,2 G,, | G,,6 | G,,3 [F,=B,]3 | %5
 [G,,G,]3 [C,E,G,]2 G, | [C,G,C]2 [F,A,C] [F,A,C]2 [G,C]/[_G,C]/ | [C,G,C]6 | [C,G,]3 [C,G,]3 | %9
 .[C,G,]3 [B,,B,]3 | .[B,,F,]3 [F,A,CF]3 | [B,,F,]3 [B,,B,]3 | .[B,,F,]3[K:treble] [F,A,CF]2 F | %13
 [F,A,CF]2 G,/_G,/ C,3 | z2 D [F,=B,D]3 | [F,A,C]3 z2 D | z2 [F,=B,] [E,B,]2 [D,B,] | [C,E,G,]6 |] %18
V:3
 [C,G,]3 z3 | x6 | x6 | x6 | x6 | x6 | x6 | x6 | x6 | x6 | x6 | x6 | x3[K:treble] x3 | x6 | %14
 G,3 z3 | z3 [F,,F,]3 | G,,6 | x6 |] %18
V:4
 x6 | x3[K:bass] x3 | x5[K:treble] x | x6 | [G,=B,]3 z3 | x6 | x6 | x6 | x6 | x6 | x6 | x6 | x6 | %13
 x6 | x6 | x6 | x6 | x6 |] %18

